Adwaita++/apps/symbolic/org.gabmus.unifydmin-symbolic.svg

<svg height="16" viewBox="0 0 4.23 4.23" width="16" xmlns="http://www.w3.org/2000/svg">
  <g fill="#474747">
    <g transform="matrix(.13826787341 0 0 .13826787341 .06590507834 1.54447514942)">
      <path d="m7.467 0h1.066c.591 0 1.067.476 1.067 1.067v1.066c0 .591-.476 1.067-1.067 1.067h-1.066c-.591 0-1.067-.476-1.067-1.067v-1.066c0-.591.476-1.067 1.067-1.067zm0 12.8h1.066c.591 0 1.067.476 1.067 1.067v1.066c0 .591-.476 1.067-1.067 1.067h-1.066c-.591 0-1.067-.476-1.067-1.067v-1.066c0-.591.476-1.067 1.067-1.067zm-5.501-10.08.754-.754a1.064 1.064 0 0 1 1.509 0l.754.754c.418.418.418 1.09 0 1.509l-.754.754a1.064 1.064 0 0 1 -1.509 0l-.754-.754a1.064 1.064 0 0 1 0-1.509zm9.051 9.051.754-.754a1.064 1.064 0 0 1 1.509 0l.754.754c.418.418.418 1.09 0 1.509l-.754.754a1.064 1.064 0 0 1 -1.509 0l-.754-.754a1.064 1.064 0 0 1 0-1.509zm-11.017-3.238v-1.066c0-.591.476-1.067 1.067-1.067h1.066c.591 0 1.067.476 1.067 1.067v1.066c0 .591-.476 1.067-1.067 1.067h-1.066c-.591 0-1.067-.476-1.067-1.067zm12.8 0v-1.066c0-.591.476-1.067 1.067-1.067h1.066c.591 0 1.067.476 1.067 1.067v1.066c0 .591-.476 1.067-1.067 1.067h-1.066c-.591 0-1.067-.476-1.067-1.067zm-10.08 5.501-.754-.754a1.064 1.064 0 0 1 0-1.509l.754-.754a1.064 1.064 0 0 1 1.509 0l.754.754c.418.418.418 1.09 0 1.509l-.754.754a1.064 1.064 0 0 1 -1.509 0zm9.051-9.051-.754-.754a1.064 1.064 0 0 1 0-1.509l.754-.754a1.064 1.064 0 0 1 1.509 0l.754.754c.418.418.418 1.09 0 1.509l-.754.754a1.064 1.064 0 0 1 -1.509 0z"/>
      <path d="m8 1.5c-3.572 0-6.5 2.928-6.5 6.5s2.928 6.5 6.5 6.5 6.5-2.928 6.5-6.5-2.928-6.5-6.5-6.5zm0 3c1.95 0 3.5 1.55 3.5 3.5s-1.55 3.5-3.5 3.5-3.5-1.55-3.5-3.5 1.55-3.5 3.5-3.5z"/>
    </g>
    <g transform="matrix(.11717672 0 0 .11717672 18.65246 -19.61864)">
      <path d="m-115.15234 20.466797c-6.16865 0-11.21289 5.044248-11.21289 11.212891v9.988281c0 4.101732 2.33837 7.552738 5.64648 9.507812-3.30864 1.954356-5.64648 5.405665-5.64648 9.507813v1.738281l.13085-.130859c1.27307-1.276766 3.15972-1.721754 4.86915-1.148438v-.458984c0-3.484914 2.72729-6.210938 6.21289-6.210938h93.585934c3.485556 0 6.21289 2.726024 6.21289 6.210938v9.990234c0 3.484876-2.728015 6.212891-6.21289 6.212891h-53.960938c.937451 1.636331 1.726125 3.366989 2.333985 5.179687h1.425781c1.314778 0 2.4888.540243 3.34375 1.400391h46.857422c3.484875 0 6.21289 2.728015 6.21289 6.212891v9.988281c0 3.484911-2.728015 6.212891-6.21289 6.212891h-54.167969c-.02241.0378-.04188.0775-.06445.11523v.002l.03125.0312 1.992187 1.99023c.803035.80304 1.23841 1.81851 1.34961 2.86133h50.859375c6.168642 0 11.21289-5.04425 11.21289-11.212891v-9.988281c0-4.098067-2.333525-7.547661-5.636718-9.503907 3.302664-1.956397 5.636718-5.404302 5.636718-9.501953v-9.990234c0-4.102148-2.337886-7.553457-5.646484-9.507813 3.308107-1.955074 5.646484-5.40608 5.646484-9.507812v-9.988281c0-6.168643-5.044248-11.212891-11.21289-11.212891zm0 5h93.585934c3.484875 0 6.21289 2.727977 6.21289 6.212891v9.988281c0 3.484875-2.728015 6.21289-6.21289 6.21289h-93.585934c-3.48492 0-6.21289-2.727977-6.21289-6.21289v-9.988281c0-3.484914 2.72797-6.212891 6.21289-6.212891z" transform="matrix(.26458333 0 0 .26458333 -122.01071 165.91785)"/>
      <circle cx="-128.851" cy="175.621" r="1.587"/>
      <circle cx="-136.789" cy="175.621" r="1.587"/>
      <circle cx="-132.82" cy="175.621" r="1.587"/>
      <circle cx="-128.851" cy="183.295" r="1.587"/>
      <circle cx="-136.789" cy="183.295" r="1.587"/>
      <circle cx="-132.82" cy="183.295" r="1.587"/>
      <circle cx="-128.851" cy="190.967" r="1.587"/>
      <circle cx="-136.789" cy="190.967" r="1.587"/>
      <circle cx="-132.82" cy="190.967" r="1.587"/>
    </g>
  </g>
</svg>

<?xml version="1.0" encoding="UTF-8" standalone="no"?>
<!-- Created with Inkscape (http://www.inkscape.org/) -->

<svg
   xmlns:dc="http://purl.org/dc/elements/1.1/"
   xmlns:cc="http://creativecommons.org/ns#"
   xmlns:rdf="http://www.w3.org/1999/02/22-rdf-syntax-ns#"
   xmlns:svg="http://www.w3.org/2000/svg"
   xmlns="http://www.w3.org/2000/svg"
   xmlns:sodipodi="http://sodipodi.sourceforge.net/DTD/sodipodi-0.dtd"
   xmlns:inkscape="http://www.inkscape.org/namespaces/inkscape"
   width="16"
   height="16"
   viewBox="0 0 4.2333333 4.2333334"
   version="1.1"
   id="svg3562"
   inkscape:version="0.92.3 (2405546, 2018-03-11)"
   sodipodi:docname="org.gabmus.unifydmin-symbolic.svg">
  <defs
     id="defs3556" />
  <sodipodi:namedview
     id="base"
     pagecolor="#ffffff"
     bordercolor="#666666"
     borderopacity="1.0"
     inkscape:pageopacity="0.0"
     inkscape:pageshadow="2"
     inkscape:zoom="52.1875"
     inkscape:cx="8"
     inkscape:cy="8"
     inkscape:document-units="px"
     inkscape:current-layer="layer1"
     showgrid="false"
     units="px"
     inkscape:window-width="1920"
     inkscape:window-height="1009"
     inkscape:window-x="0"
     inkscape:window-y="34"
     inkscape:window-maximized="1"
     inkscape:snap-bbox="true"
     inkscape:bbox-nodes="false"
     inkscape:snap-bbox-edge-midpoints="true" />
  <metadata
     id="metadata3559">
    <rdf:RDF>
      <cc:Work
         rdf:about="">
        <dc:format>image/svg+xml</dc:format>
        <dc:type
           rdf:resource="http://purl.org/dc/dcmitype/StillImage" />
        <dc:title></dc:title>
      </cc:Work>
    </rdf:RDF>
  </metadata>
  <g
     inkscape:label="Layer 1"
     inkscape:groupmode="layer"
     id="layer1"
     transform="translate(122.01071,-195.55118)">
    <g
       id="g1166"
       transform="matrix(0.03100586,0,0,0.03100586,-121.63976,188.49677)" />
    <g
       transform="matrix(0.02192445,0.02192445,-0.02192445,0.02192445,-115.88438,189.23682)"
       id="g1172" />
    <g
       id="g1178"
       transform="matrix(0,0.03100586,-0.03100586,0,-112.33801,193.82978)" />
    <g
       id="g1123"
       transform="matrix(0.1171875,0,0,0.1171875,-107.64667,175.8957)" />
    <g
       id="g1118"
       transform="matrix(0.1171875,0,0,0.1171875,-107.64667,175.8957)" />
    <g
       id="g1180"
       transform="matrix(0.11717672,0,0,0.11717672,-103.35825,175.93254)"
       style="stroke-width:1.00009203">
      <g
         transform="matrix(1.1799944,0,0,1.1799944,-158.61986,180.60853)"
         id="g6"
         style="fill:#2e3436;stroke-width:0.22424486">
        <path
           id="path2"
           style="stroke-width:0.22424486;marker:none"
           d="M 7.467,0 H 8.533 C 9.124,0 9.6,0.476 9.6,1.067 V 2.133 C 9.6,2.724 9.124,3.2 8.533,3.2 H 7.467 C 6.876,3.2 6.4,2.724 6.4,2.133 V 1.067 C 6.4,0.476 6.876,0 7.467,0 Z m 0,12.8 h 1.066 c 0.591,0 1.067,0.476 1.067,1.067 v 1.066 C 9.6,15.524 9.124,16 8.533,16 H 7.467 C 6.876,16 6.4,15.524 6.4,14.933 V 13.867 C 6.4,13.276 6.876,12.8 7.467,12.8 Z M 1.966,2.72 2.72,1.966 a 1.064,1.064 0 0 1 1.509,0 L 4.983,2.72 c 0.418,0.418 0.418,1.09 0,1.509 L 4.229,4.983 a 1.064,1.064 0 0 1 -1.509,0 L 1.966,4.229 a 1.064,1.064 0 0 1 0,-1.509 z m 9.051,9.051 0.754,-0.754 a 1.064,1.064 0 0 1 1.509,0 l 0.754,0.754 c 0.418,0.418 0.418,1.09 0,1.509 l -0.754,0.754 a 1.064,1.064 0 0 1 -1.509,0 L 11.017,13.28 a 1.064,1.064 0 0 1 0,-1.509 z M 0,8.533 V 7.467 C 0,6.876 0.476,6.4 1.067,6.4 H 2.133 C 2.724,6.4 3.2,6.876 3.2,7.467 V 8.533 C 3.2,9.124 2.724,9.6 2.133,9.6 H 1.067 C 0.476,9.6 0,9.124 0,8.533 Z m 12.8,0 V 7.467 C 12.8,6.876 13.276,6.4 13.867,6.4 h 1.066 C 15.524,6.4 16,6.876 16,7.467 V 8.533 C 16,9.124 15.524,9.6 14.933,9.6 H 13.867 C 13.276,9.6 12.8,9.124 12.8,8.533 Z M 2.72,14.034 1.966,13.28 a 1.064,1.064 0 0 1 0,-1.509 L 2.72,11.017 a 1.064,1.064 0 0 1 1.509,0 l 0.754,0.754 c 0.418,0.418 0.418,1.09 0,1.509 l -0.754,0.754 a 1.064,1.064 0 0 1 -1.509,0 z M 11.771,4.983 11.017,4.229 a 1.064,1.064 0 0 1 0,-1.509 l 0.754,-0.754 a 1.064,1.064 0 0 1 1.509,0 l 0.754,0.754 c 0.418,0.418 0.418,1.09 0,1.509 L 13.28,4.983 a 1.064,1.064 0 0 1 -1.509,0 z"
           inkscape:connector-curvature="0" />
        <path
           id="path4"
           overflow="visible"
           font-weight="400"
           style="color:#000000;font-weight:400;line-height:normal;font-family:sans-serif;font-variant-ligatures:normal;font-variant-position:normal;font-variant-caps:normal;font-variant-numeric:normal;font-variant-alternates:normal;font-feature-settings:normal;text-indent:0;text-align:start;text-decoration:none;text-decoration-line:none;text-decoration-style:solid;text-decoration-color:#000000;text-transform:none;text-orientation:mixed;white-space:normal;shape-padding:0;overflow:visible;isolation:auto;mix-blend-mode:normal;stroke-width:0.22424486;marker:none"
           d="M 8,1.5 C 4.428,1.5 1.5,4.428 1.5,8 c 0,3.572 2.928,6.5 6.5,6.5 3.572,0 6.5,-2.928 6.5,-6.5 C 14.5,4.428 11.572,1.5 8,1.5 Z m 0,3 c 1.95,0 3.5,1.55 3.5,3.5 0,1.95 -1.55,3.5 -3.5,3.5 C 6.05,11.5 4.5,9.95 4.5,8 4.5,6.05 6.05,4.5 8,4.5 Z"
           inkscape:connector-curvature="0" />
      </g>
      <g
         style="fill:#2e3436;fill-opacity:1;stroke-width:1.00009203"
         id="g1113">
        <g
           style="fill:#2e3436;fill-opacity:1;stroke-width:1.00009203"
           id="g1163">
          <path
             style="color:#000000;font-style:normal;font-variant:normal;font-weight:normal;font-stretch:normal;font-size:medium;line-height:normal;font-family:sans-serif;font-variant-ligatures:normal;font-variant-position:normal;font-variant-caps:normal;font-variant-numeric:normal;font-variant-alternates:normal;font-feature-settings:normal;text-indent:0;text-align:start;text-decoration:none;text-decoration-line:none;text-decoration-style:solid;text-decoration-color:#000000;letter-spacing:normal;word-spacing:normal;text-transform:none;writing-mode:lr-tb;direction:ltr;text-orientation:mixed;dominant-baseline:auto;baseline-shift:baseline;text-anchor:start;white-space:normal;shape-padding:0;clip-rule:nonzero;display:inline;overflow:visible;visibility:visible;opacity:1;isolation:auto;mix-blend-mode:normal;color-interpolation:sRGB;color-interpolation-filters:linearRGB;solid-color:#000000;solid-opacity:1;vector-effect:none;fill:#2e3436;fill-opacity:1;fill-rule:nonzero;stroke:none;stroke-width:5.00046015;stroke-linecap:butt;stroke-linejoin:bevel;stroke-miterlimit:4;stroke-dasharray:none;stroke-dashoffset:0;stroke-opacity:1;paint-order:fill markers stroke;color-rendering:auto;image-rendering:auto;shape-rendering:auto;text-rendering:auto;enable-background:accumulate"
             d="m -115.15234,20.466797 c -6.16865,0 -11.21289,5.044248 -11.21289,11.212891 v 9.988281 c 0,4.101732 2.33837,7.552738 5.64648,9.507812 -3.30864,1.954356 -5.64648,5.405665 -5.64648,9.507813 v 1.738281 l 0.13085,-0.130859 c 1.27307,-1.276766 3.15972,-1.721754 4.86915,-1.148438 v -0.458984 c 0,-3.484914 2.72729,-6.210938 6.21289,-6.210938 h 93.585934 c 3.485556,0 6.21289,2.726024 6.21289,6.210938 v 9.990234 c 0,3.484876 -2.728015,6.212891 -6.21289,6.212891 h -53.960938 c 0.937451,1.636331 1.726125,3.366989 2.333985,5.179687 h 1.425781 c 1.314778,0 2.4888,0.540243 3.34375,1.400391 h 46.857422 c 3.484875,0 6.21289,2.728015 6.21289,6.212891 v 9.988281 c 0,3.484911 -2.728015,6.212891 -6.21289,6.212891 h -54.167969 c -0.02241,0.0378 -0.04188,0.0775 -0.06445,0.11523 v 0.002 l 0.03125,0.0312 1.992187,1.99023 c 0.803035,0.80304 1.23841,1.81851 1.34961,2.86133 h 50.859375 c 6.168642,0 11.21289,-5.04425 11.21289,-11.212891 v -9.988281 c 0,-4.098067 -2.333525,-7.547661 -5.636718,-9.503907 3.302664,-1.956397 5.636718,-5.404302 5.636718,-9.501953 v -9.990234 c 0,-4.102148 -2.337886,-7.553457 -5.646484,-9.507813 3.308107,-1.955074 5.646484,-5.40608 5.646484,-9.507812 v -9.988281 c 0,-6.168643 -5.044248,-11.212891 -11.21289,-11.212891 z m 0,5 h 93.585934 c 3.484875,0 6.21289,2.727977 6.21289,6.212891 v 9.988281 c 0,3.484875 -2.728015,6.21289 -6.21289,6.21289 h -93.585934 c -3.48492,0 -6.21289,-2.727977 -6.21289,-6.21289 v -9.988281 c 0,-3.484914 2.72797,-6.212891 6.21289,-6.212891 z"
             id="rect1015"
             inkscape:connector-curvature="0"
             sodipodi:nodetypes="ssscscccsccsssccscssssccccccssscsscsssssssssssss"
             transform="matrix(0.26458333,0,0,0.26458333,-122.01071,165.91785)" />
          <circle
             style="display:inline;opacity:1;fill:#2e3436;fill-opacity:1;stroke:none;stroke-width:0.26460767;stroke-linecap:butt;stroke-linejoin:bevel;stroke-miterlimit:0;stroke-dasharray:none;stroke-dashoffset:0;stroke-opacity:1;paint-order:fill markers stroke;enable-background:new"
             id="circle1091"
             cx="-128.8511"
             cy="175.62114"
             r="1.5875" />
          <circle
             r="1.5875"
             cy="175.62114"
             cx="-136.7886"
             id="circle1093"
             style="opacity:1;fill:#2e3436;fill-opacity:1;stroke:none;stroke-width:0.26460767;stroke-linecap:butt;stroke-linejoin:bevel;stroke-miterlimit:0;stroke-dasharray:none;stroke-dashoffset:0;stroke-opacity:1;paint-order:fill markers stroke" />
          <circle
             style="opacity:1;fill:#2e3436;fill-opacity:1;stroke:none;stroke-width:0.26460767;stroke-linecap:butt;stroke-linejoin:bevel;stroke-miterlimit:0;stroke-dasharray:none;stroke-dashoffset:0;stroke-opacity:1;paint-order:fill markers stroke"
             id="circle1095"
             cx="-132.81985"
             cy="175.62114"
             r="1.5875" />
          <circle
             r="1.5875"
             cy="183.29538"
             cx="-128.8511"
             id="circle1098"
             style="display:inline;opacity:1;fill:#2e3436;fill-opacity:1;stroke:none;stroke-width:0.26460767;stroke-linecap:butt;stroke-linejoin:bevel;stroke-miterlimit:0;stroke-dasharray:none;stroke-dashoffset:0;stroke-opacity:1;paint-order:fill markers stroke;enable-background:new" />
          <circle
             style="opacity:1;fill:#2e3436;fill-opacity:1;stroke:none;stroke-width:0.26460767;stroke-linecap:butt;stroke-linejoin:bevel;stroke-miterlimit:0;stroke-dasharray:none;stroke-dashoffset:0;stroke-opacity:1;paint-order:fill markers stroke"
             id="circle1100"
             cx="-136.7886"
             cy="183.29538"
             r="1.5875" />
          <circle
             r="1.5875"
             cy="183.29538"
             cx="-132.81985"
             id="circle1102"
             style="opacity:1;fill:#2e3436;fill-opacity:1;stroke:none;stroke-width:0.26460767;stroke-linecap:butt;stroke-linejoin:bevel;stroke-miterlimit:0;stroke-dasharray:none;stroke-dashoffset:0;stroke-opacity:1;paint-order:fill markers stroke" />
          <circle
             style="display:inline;opacity:1;fill:#2e3436;fill-opacity:1;stroke:none;stroke-width:0.26460767;stroke-linecap:butt;stroke-linejoin:bevel;stroke-miterlimit:0;stroke-dasharray:none;stroke-dashoffset:0;stroke-opacity:1;paint-order:fill markers stroke;enable-background:new"
             id="circle1104"
             cx="-128.8511"
             cy="190.96698"
             r="1.5875" />
          <circle
             r="1.5875"
             cy="190.96698"
             cx="-136.7886"
             id="circle1106"
             style="opacity:1;fill:#2e3436;fill-opacity:1;stroke:none;stroke-width:0.26460767;stroke-linecap:butt;stroke-linejoin:bevel;stroke-miterlimit:0;stroke-dasharray:none;stroke-dashoffset:0;stroke-opacity:1;paint-order:fill markers stroke" />
          <circle
             style="opacity:1;fill:#2e3436;fill-opacity:1;stroke:none;stroke-width:0.26460767;stroke-linecap:butt;stroke-linejoin:bevel;stroke-miterlimit:0;stroke-dasharray:none;stroke-dashoffset:0;stroke-opacity:1;paint-order:fill markers stroke"
             id="circle1108"
             cx="-132.81985"
             cy="190.96698"
             r="1.5875" />
        </g>
      </g>
    </g>
  </g>
</svg>
